1-js/04-object-basics/03-garbage-collection/memory-user-john-admin.svg

<?xml version="1.0" encoding="UTF-8"?>
<svg width="144px" height="159px" viewBox="0 0 144 159" version="1.1" xmlns="http://www.w3.org/2000/svg" xmlns:xlink="http://www.w3.org/1999/xlink">
    <!-- Generator: sketchtool 61.2 (101010) - https://sketch.com -->
    <title>memory-user-john-admin.svg</title>
    <desc>Created with sketchtool.</desc>
    <g id="garbage-collection" stroke="none" stroke-width="1" fill="none" fill-rule="evenodd">
        <g id="memory-user-john-admin.svg">
            <text id="user" font-family="PTMono-Regular, PT Mono" font-size="14" font-weight="normal" fill="#8A704D">
                <tspan x="12" y="67">user</tspan>
            </text>
            <rect id="Rectangle-4" stroke="#BCA68E" stroke-width="2" fill="#FFF9EB" x="16" y="93" width="118" height="48"></rect>
            <text id="name:-&quot;John&quot;" font-family="PTMono-Regular, PT Mono" font-size="12" font-weight="normal" fill="#8A704D">
                <tspan x="30" y="130">name: "John"</tspan>
            </text>
            <text id="Object" font-family="PTMono-Regular, PT Mono" font-size="14" font-weight="normal" fill="#8A704D">
                <tspan x="44" y="110">Object</tspan>
            </text>
            <path id="Line" d="M55.5,47.5 L55.5,65.5 L61.5,65.5 L54.5,79.5 L47.5,65.5 L53.5,65.5 L53.5,47.5 L55.5,47.5 Z" fill="#EE6B47" fill-rule="nonzero"></path>
            <text id="admin" font-family="PTMono-Regular, PT Mono" font-size="14" font-weight="normal" fill="#8A704D">
                <tspan x="92" y="67">admin</tspan>
            </text>
            <path id="Line-Copy" d="M83.5,47.5 L83.5,65.5 L89.5,65.5 L82.5,79.5 L75.5,65.5 L81.5,65.5 L81.5,47.5 L83.5,47.5 Z" fill="#EE6B47" fill-rule="nonzero"></path>
            <rect id="Rectangle-1" stroke="#E8C48E" stroke-width="2" fill="#FFF9EB" x="27" y="16" width="93" height="26"></rect>
            <text id="&lt;global&gt;" font-family="PTMono-Regular, PT Mono" font-size="14" font-weight="normal" fill="#8A704D">
                <tspan x="43" y="33">&lt;global&gt;</tspan>
            </text>
        </g>
    </g>
</svg>

<svg xmlns="http://www.w3.org/2000/svg" width="144" height="159" viewBox="0 0 144 159"><defs><style>@import url(https://fonts.googleapis.com/css?family=Open+Sans:bold,italic,bolditalic%7CPT+Mono);@font-face{font-family:&apos;PT Mono&apos;;font-weight:700;font-style:normal;src:local(&apos;PT MonoBold&apos;),url(/font/PTMonoBold.woff2) format(&apos;woff2&apos;),url(/font/PTMonoBold.woff) format(&apos;woff&apos;),url(/font/PTMonoBold.ttf) format(&apos;truetype&apos;)}</style></defs><g id="garbage-collection" fill="none" fill-rule="evenodd" stroke="none" stroke-width="1"><g id="memory-user-john-admin.svg"><text id="user" fill="#AF6E24" font-family="PTMono-Regular, PT Mono" font-size="14" font-weight="normal"><tspan x="12" y="67">user</tspan></text><path id="Rectangle-4" fill="#FBF2EC" stroke="#DBAF88" stroke-width="2" d="M16 93h118v48H16z"/><text id="name:-&quot;John&quot;" fill="#AF6E24" font-family="PTMono-Regular, PT Mono" font-size="12" font-weight="normal"><tspan x="30" y="130">name: &quot;John&quot;</tspan></text><text id="Object" fill="#AF6E24" font-family="PTMono-Regular, PT Mono" font-size="14" font-weight="normal"><tspan x="44" y="110">Object</tspan></text><path id="Line" fill="#C06334" fill-rule="nonzero" d="M55.5 47.5v18h6l-7 14-7-14h6v-18h2z"/><text id="admin" fill="#AF6E24" font-family="PTMono-Regular, PT Mono" font-size="14" font-weight="normal"><tspan x="92" y="67">admin</tspan></text><path id="Line-Copy" fill="#C06334" fill-rule="nonzero" d="M83.5 47.5v18h6l-7 14-7-14h6v-18h2z"/><path id="Rectangle-1" fill="#FBF2EC" stroke="#DBAF88" stroke-width="2" d="M27 16h93v26H27z"/><text id="&lt;global&gt;" fill="#AF6E24" font-family="PTMono-Regular, PT Mono" font-size="14" font-weight="normal"><tspan x="43" y="33">&lt;global&gt;</tspan></text></g></g></svg>
